X: 4311
T: MARCH OF THE AUSTRIAN SOLDIERS. (Bohemian Girl.)
R: March
%R: march
B: James Kerr "Merry Melodies" v.4 p.33 #311
Z: 2016 John Chambers <jc:trillian.mit.edu>
M: 2/4
L: 1/16
K: D
|:!p!\
A,2A,A, A,2A,A, | A,2G2 (G2F)z |\
A,2F2 (F2E)z | A,2E2 (E2D)z |\
A,2A,A, A,2A,A, | A,2G2 (G2F)z |\
A,2F2 (F2E)z | D2z2 D4 :|
|:\
E2EE E2E2 | =F4 E4 |\
C2CC C2C2 | D2E2 F4 |\
F2FF F2F2 | (F4 E4) |\
C2CD E2F2 | D2z2 D4 :|

%%sep 1 1 500
%%sep 1 1 500

